api-ign-js/src/facade/assets/svg/circleIcons/espacioProtegido.svg

<?xml version="1.0" encoding="UTF-8" standalone="no"?>
<svg
   id="Capa_2"
   width="18"
   height="18"
   viewBox="0 0 18 18"
   version="1.1"
   sodipodi:docname="espacioProtegido.svg"
   inkscape:version="1.2.1 (9c6d41e410, 2022-07-14)"
   xmlns:inkscape="http://www.inkscape.org/namespaces/inkscape"
   xmlns:sodipodi="http://sodipodi.sourceforge.net/DTD/sodipodi-0.dtd"
   xmlns="http://www.w3.org/2000/svg"
   xmlns:svg="http://www.w3.org/2000/svg">
  <sodipodi:namedview
     id="namedview9"
     pagecolor="#ffffff"
     bordercolor="#000000"
     borderopacity="0.25"
     inkscape:showpageshadow="2"
     inkscape:pageopacity="0.0"
     inkscape:pagecheckerboard="0"
     inkscape:deskcolor="#d1d1d1"
     showgrid="false"
     inkscape:zoom="32.134075"
     inkscape:cx="4.6212627"
     inkscape:cy="8.9780086"
     inkscape:window-width="1920"
     inkscape:window-height="1002"
     inkscape:window-x="-8"
     inkscape:window-y="-8"
     inkscape:window-maximized="1"
     inkscape:current-layer="_4.3.2" />
  <defs
     id="defs4">
    <style
       id="style2">.cls-1{fill:#fff;}.cls-2{fill:#11491e;}</style>
  </defs>
  <g
     id="iconos">
    <g
       id="_4.3.2">
      <circle
         class="cls-2"
         cx="9.0110025"
         cy="9.0110025"
         r="9"
         id="circle6"
         inkscape:label="circle" />
      <path
         id="path6"
         class="cls-1"
         d="m 3.1308594,2.1796875 a 9,9 0 0 0 -0.048828,0.042969 c 0.016328,-0.014271 0.032397,-0.028814 0.048828,-0.042969 z M 2.2226562,3.0820312 a 9,9 0 0 0 -0.042969,0.048828 c 0.014155,-0.016431 0.028698,-0.0325 0.042969,-0.048828 z m 6.7167969,0.1875 -1.21875,2.0996094 H 8.4101562 L 6.9707031,7.359375 7.9101562,7.3300781 6.2890625,9.3808594 H 7.5898438 L 5.9101562,11.759766 H 12.050781 L 10.390625,9.4101562 h 1.208984 L 10.039062,7.3398438 h 0.861329 L 9.5507812,5.390625 H 10.130859 Z M 4.8203125,3.8808594 3.609375,5.6191406 h 0.6699219 l -1.1894531,1.78125 h 0.75 L 2.359375,9.2207031 H 3.5097656 L 2.0703125,11.410156 h 3.6992187 l 1.28125,-1.7207029 H 5.5703125 L 6.5605469,8.4902344 5.7597656,7.4296875 H 6.4296875 L 5.2792969,5.609375 H 5.859375 Z m 8.3496095,0 -1.039063,1.7285156 h 0.56836 l -1.148438,1.8203125 h 0.679688 l -0.810547,1.0605469 0.990234,1.1894531 h -1.470703 l 1.271485,1.7304685 h 3.699218 L 14.480469,9.2207031 h 1.138672 l -1.46875,-1.8203125 h 0.740234 l -1.191406,-1.78125 h 0.669922 z M 4.5195312,11.689453 v 1.691406 l 0.6347657,0.02149 -0.044922,-1.712891 z m 8.3203128,0 v 1.691406 h 0.589844 v -1.691406 z m -4.199219,0.371094 v 2.048828 h 0.6601562 v -2.048828 z m -6.4609375,2.808594 a 9,9 0 0 0 0.042969,0.04883 c -0.014271,-0.01633 -0.028814,-0.0324 -0.042969,-0.04883 z m 13.6406245,0 c -0.01415,0.01643 -0.0287,0.0325 -0.04297,0.04883 a 9,9 0 0 0 0.04297,-0.04883 z M 3.0820312,15.777344 a 9,9 0 0 0 0.048828,0.04297 c -0.016431,-0.01415 -0.0325,-0.0287 -0.048828,-0.04297 z m 11.8359378,0 c -0.01633,0.01427 -0.0324,0.02881 -0.04883,0.04297 a 9,9 0 0 0 0.04883,-0.04297 z"
         inkscape:label="path" />
    </g>
  </g>
</svg>

<?xml version="1.0" encoding="UTF-8" ?>
<svg
   id="Capa_2"
   width="18"
   height="18"
   viewBox="0 0 18 18"
   version="1.1"
   xmlns="http://www.w3.org/2000/svg" >
  <defs
     id="defs4">
    <style
       id="style2">.cls-2{fill:#fff;}.cls-1{fill:#11491e;}</style>
  </defs>
  <g
     id="iconos">
    <g
       id="_4.3.2">
      <circle
         class="cls-2"
         cx="9.0110025"
         cy="9.0110025"
         r="9"
         id="circle6-7"
         style="display:inline;fill:#11491e" />
      <path
         id="circle6"
         style="display:inline;fill:#fff"
         class="cls-2"
         d="M 3.1308594 2.1796875 A 9 9 0 0 0 3.0820312 2.2226562 C 3.098359 2.2083851 3.1144279 2.1938423 3.1308594 2.1796875 z M 2.2226562 3.0820312 A 9 9 0 0 0 2.1796875 3.1308594 C 2.1938423 3.1144279 2.2083851 3.098359 2.2226562 3.0820312 z M 8.9394531 3.2695312 L 7.7207031 5.3691406 L 8.4101562 5.3691406 L 6.9707031 7.359375 L 7.9101562 7.3300781 L 6.2890625 9.3808594 L 7.5898438 9.3808594 L 5.9101562 11.759766 L 12.050781 11.759766 L 10.390625 9.4101562 L 11.599609 9.4101562 L 10.039062 7.3398438 L 10.900391 7.3398438 L 9.5507812 5.390625 L 10.130859 5.390625 L 8.9394531 3.2695312 z M 4.8203125 3.8808594 L 3.609375 5.6191406 L 4.2792969 5.6191406 L 3.0898438 7.4003906 L 3.8398438 7.4003906 L 2.359375 9.2207031 L 3.5097656 9.2207031 L 2.0703125 11.410156 L 5.7695312 11.410156 L 7.0507812 9.6894531 L 5.5703125 9.6894531 L 6.5605469 8.4902344 L 5.7597656 7.4296875 L 6.4296875 7.4296875 L 5.2792969 5.609375 L 5.859375 5.609375 L 4.8203125 3.8808594 z M 13.169922 3.8808594 L 12.130859 5.609375 L 12.699219 5.609375 L 11.550781 7.4296875 L 12.230469 7.4296875 L 11.419922 8.4902344 L 12.410156 9.6796875 L 10.939453 9.6796875 L 12.210938 11.410156 L 15.910156 11.410156 L 14.480469 9.2207031 L 15.619141 9.2207031 L 14.150391 7.4003906 L 14.890625 7.4003906 L 13.699219 5.6191406 L 14.369141 5.6191406 L 13.169922 3.8808594 z M 4.5195312 11.689453 L 4.5195312 13.380859 L 5.1542969 13.402344 L 5.109375 11.689453 L 4.5195312 11.689453 z M 12.839844 11.689453 L 12.839844 13.380859 L 13.429688 13.380859 L 13.429688 11.689453 L 12.839844 11.689453 z M 8.640625 12.060547 L 8.640625 14.109375 L 9.3007812 14.109375 L 9.3007812 12.060547 L 8.640625 12.060547 z M 2.1796875 14.869141 A 9 9 0 0 0 2.2226562 14.917969 C 2.2083851 14.901641 2.1938423 14.885572 2.1796875 14.869141 z M 15.820312 14.869141 C 15.806158 14.885572 15.791615 14.901641 15.777344 14.917969 A 9 9 0 0 0 15.820312 14.869141 z M 3.0820312 15.777344 A 9 9 0 0 0 3.1308594 15.820312 C 3.1144279 15.806158 3.098359 15.791615 3.0820312 15.777344 z M 14.917969 15.777344 C 14.901641 15.791615 14.885572 15.806158 14.869141 15.820312 A 9 9 0 0 0 14.917969 15.777344 z " />
    </g>
  </g>
</svg>
